X:659
%%etbk:tnset id:401,pos:2,rep:3x,ant:
%%etbk:wsite https://thesession.org/tunes/577
%%etbk:video src:ytube,cde:Aqgx81sV904,desc:first tune
%%etbk:pldat 2016-09-17T14:22,2016-09-15T18:05,2016-09-13T16:56,2016-09-11T15:25,2016-09-10T15:26,2016-09-07T17:11,2016-09-06T17:12,2016-09-04T10:56,2016-09-03T10:40,2016-08-21T12:03,2016-08-06T13:52,2016-07-29T17:11,2016-07-24T16:42,2016-06-14T17:50,2016-05-25T17:19,2016-05-16T16:18,2015-12-29T17:39,2015-07-07T17:17,2015-06-04T18:01,2015-06-04T17:55,2015-04-26T20:26,2015-04-04T14:38
T: Ah Surely
Z: Piano Box Version by Martin Fleischmann
H: Created 2015-03-30 /  Last Modified 2015-06-04
R: reel
M: 4/4
L: 1/8
K: Gmaj
|:!2!A3c BG~G2|BGBd !5!g2!4!fg|!3!e!1!A~A2 !2!BGB!3!d|!4!e!5!g!3!d!2!c !1!B!2!A!1!GB|
A3c BG~G2|BGBd !5!g2!3!ga|!5!bga!3!g !2!(3efg fa|!4!ge!1!d!3!c BG~G2:|
|:!5!b!3!g~g2 ag!1!ef|!3!~g3e !1!de!3!ga|bg~g2 aged|!2!e!4!aag a2ga|
bg~g2 agef|~g3e dega|bga!3!g !2!(3efg fa|!4!ge!1!d!3!c BG~G2:|


